X: 1041
M: 2/4
L: 1/16
K: D
|:\
d4 f4 | a6 (3ABc | d3c B3d | A4 F4 |\
c4 e4 | e3B c4 | c2dc B2^G2 | A4 z4 |\
d4 f4 | a6 (3ABc | d3c e3d | f4 d4 |\
|:\
dced B4 | d2g2 b4 | b2c'b a2f2 | g2b2 d'4 |\
dced B4 | d2g2 b4 | b2c'b a2f2 | g6 z2 :|\
|: Ad |\
f6 g2 | ^g2a2 b4 | agfg e2c2 | dced f3d |
f6 g2 | ^g2a2 b4 | agfg e2c2 | d4 z4 :|\
|:\
|:\

